svg/u1f6be.svg

<svg viewBox="0 0 128 128" xmlns="http://www.w3.org/2000/svg">
  <g>
    <path d="M116,4H12c-4.42,0-8,3.58-8,8v104c0,4.42,3.58,8,8,8h104c4.42,0,8-3.58,8-8V12 C124,7.58,120.42,4,116,4z" fill="#194FA5"/>
    <path d="M109.7,4H11.5C7.37,4.03,4.03,7.37,4,11.5v97.9c-0.01,4.14,3.34,7.49,7.48,7.5c0.01,0,0.01,0,0.02,0 h98.1c4.14,0.01,7.49-3.34,7.5-7.48c0-0.01,0-0.01,0-0.02V11.5c0.09-4.05-3.13-7.41-7.18-7.5C109.85,4,109.77,4,109.7,4z" fill="#2262DD"/>
    <g>
      <path d="M11.57,42.25h9.03l5.9,24.21l0.72,4.52h0.48l0.96-4.52l7.59-24.21h8.01l7.41,24.21l0.96,4.4h0.48 l0.72-4.4l5.84-24.21h9.03L57.59,85.37h-8.73l-7.35-26.02l-0.96-4.64h-0.48l-0.96,4.64L31.4,85.37h-8.37L11.57,42.25z" fill="#FBF9F9"/>
      <path d="M83.13,83.36c-3.45-1.99-6.17-4.7-8.16-8.13s-2.98-7.24-2.98-11.41c0-4.18,0.99-7.98,2.98-11.41 c1.99-3.43,4.71-6.14,8.16-8.13c3.45-1.99,7.27-2.98,11.44-2.98c6.51,0,11.89,2.35,16.14,7.05l-5.72,5.54 c-2.77-3.25-6.22-4.88-10.36-4.88c-2.69,0-5.14,0.61-7.35,1.84s-3.95,2.96-5.21,5.21s-1.9,4.84-1.9,7.77s0.63,5.52,1.9,7.77 c1.26,2.25,3,3.99,5.21,5.21c2.21,1.23,4.66,1.84,7.35,1.84c4.54,0,8.33-1.89,11.38-5.66l5.78,5.48 c-2.13,2.57-4.65,4.53-7.56,5.87c-2.91,1.34-6.13,2.02-9.67,2.02C90.4,86.34,86.58,85.34,83.13,83.36z" fill="#FBF9F9"/>
    </g>
  </g>
  <path d="M39.7,12.9c0-2.3-1.6-3-10.8-2.7c-7.7,0.3-11.5,1.2-13.8,4 c-1.9,2.3-2.3,5.6-2.6,8.4c-0.2,2.2-2.2,14.9,3.5,11.2c0.68-0.45,1.23-1.07,1.6-1.8c1.2-2.1,1.9-3.5,3.3-5.6 C26.2,17.8,39.7,15.9,39.7,12.9z" opacity="0.3" fill="#FFFFFF" enable-background="new "/>
</svg>

<svg viewBox="0 0 128 128" xmlns="http://www.w3.org/2000/svg">
  <defs/>
  <path d="M116,4 L12,4 C7.58,4 4,7.58 4,12 L4,116 C4,120.42 7.58,124 12,124 L116,124 C120.42,124 124,120.42 124,116 L124,12 C124,7.58 120.42,4 116,4 Z" fill="#194FA5"/>
  <path d="M109.7,4 L11.5,4 C7.37,4.03 4.03,7.37 4,11.5 L4,109.4 C3.99,113.54 7.34,116.89 11.48,116.9 C11.49,116.9 11.49,116.9 11.5,116.9 L109.6,116.9 C113.74,116.91 117.09,113.56 117.1,109.42 C117.1,109.41 117.1,109.41 117.1,109.4 L117.1,11.5 C117.19,7.45 113.97,4.09 109.92,4 C109.85,4 109.77,4 109.7,4 Z" fill="#2262DD"/>
  <path d="M11.57,42.25 L20.6,42.25 L26.5,66.46 L27.22,70.98 L27.7,70.98 L28.66,66.46 L36.25,42.25 L44.26,42.25 L51.67,66.46 L52.63,70.86 L53.11,70.86 L53.83,66.46 L59.67,42.25 L68.7,42.25 L57.59,85.37 L48.86,85.37 L41.51,59.35 L40.55,54.71 L40.07,54.71 L39.11,59.35 L31.4,85.37 L23.03,85.37 L11.57,42.25 Z" fill="#FBF9F9"/>
  <path d="M83.13,83.36 C79.68,81.37 76.96,78.66 74.97,75.23 C72.98,71.8 71.99,67.99 71.99,63.82 C71.99,59.64 72.98,55.84 74.97,52.41 C76.96,48.98 79.68,46.27 83.13,44.28 C86.58,42.29 90.4,41.3 94.57,41.3 C101.08,41.3 106.46,43.65 110.71,48.35 L104.99,53.89 C102.22,50.64 98.77,49.01 94.63,49.01 C91.94,49.01 89.49,49.62 87.28,50.85 C85.07,52.08 83.33,53.81 82.07,56.06 C80.81,58.31 80.17,60.9 80.17,63.83 C80.17,66.76 80.8,69.35 82.07,71.6 C83.33,73.85 85.07,75.59 87.28,76.81 C89.49,78.04 91.94,78.65 94.63,78.65 C99.17,78.65 102.96,76.76 106.01,72.99 L111.79,78.47 C109.66,81.04 107.14,83 104.23,84.34 C101.32,85.68 98.1,86.36 94.56,86.36 C90.4,86.34 86.58,85.34 83.13,83.36 Z" fill="#FBF9F9"/>
  <path d="M39.7,12.9 C39.7,10.6 38.1,9.9 28.9,10.2 C21.2,10.5 17.4,11.4 15.1,14.2 C13.2,16.5 12.8,19.8 12.5,22.6 C12.3,24.8 10.3,37.5 16,33.8 C16.68,33.35 17.23,32.73 17.6,32 C18.8,29.9 19.5,28.5 20.9,26.4 C26.2,17.8 39.7,15.9 39.7,12.9 Z" fill="#FFFFFF" opacity="0.3"/>
</svg>
